B1.xmp
<x:xmpmeta xmlns:x="adobe:ns:meta/" x:xmptk="Adobe XMP Core 5.6-c140 79.160451, 2017/05/06-01:08:21        ">
 <rdf:RDF xmlns:rdf="http://www.w3.org/1999/02/22-rdf-syntax-ns#">
  <rdf:Description rdf:about=""
    xmlns:crs="http://ns.adobe.com/camera-raw-settings/1.0/"
   crs:PresetType="Normal"
   crs:Cluster=""
   crs:UUID="776B9E4F54C545D5A949DCB3DA2F5490"
   crs:SupportsAmount="False"
   crs:SupportsColor="True"
   crs:SupportsMonochrome="True"
   crs:SupportsHighDynamicRange="True"
   crs:SupportsNormalDynamicRange="True"
   crs:SupportsSceneReferred="True"
   crs:SupportsOutputReferred="True"
   crs:CameraModelRestriction=""
   crs:Copyright=""
   crs:ContactInfo=""
   crs:Version="11.2.1"
   crs:ProcessVersion="11.0"
   crs:WhiteBalance="As Shot"
   crs:Saturation="-15"
   crs:LuminanceSmoothing="10"
   crs:ColorNoiseReduction="25"
   crs:ShadowTint="-4"
   crs:RedHue="+25"
   crs:RedSaturation="+35"
   crs:GreenHue="+60"
   crs:GreenSaturation="-20"
   crs:BlueHue="-5"
   crs:BlueSaturation="-5"
   crs:Vibrance="0"
   crs:HueAdjustmentRed="+15"
   crs:HueAdjustmentOrange="-4"
   crs:HueAdjustmentYellow="+5"
   crs:HueAdjustmentGreen="0"
   crs:HueAdjustmentAqua="+10"
   crs:HueAdjustmentBlue="-5"
   crs:HueAdjustmentPurple="0"
   crs:HueAdjustmentMagenta="0"
   crs:SaturationAdjustmentRed="-20"
   crs:SaturationAdjustmentOrange="-5"
   crs:SaturationAdjustmentYellow="-5"
   crs:SaturationAdjustmentGreen="-20"
   crs:SaturationAdjustmentAqua="-50"
   crs:SaturationAdjustmentBlue="-25"
   crs:SaturationAdjustmentPurple="-45"
   crs:SaturationAdjustmentMagenta="-30"
   crs:LuminanceAdjustmentRed="-25"
   crs:LuminanceAdjustmentOrange="-5"
   crs:LuminanceAdjustmentYellow="+10"
   crs:LuminanceAdjustmentGreen="0"
   crs:LuminanceAdjustmentAqua="+15"
   crs:LuminanceAdjustmentBlue="-25"
   crs:LuminanceAdjustmentPurple="+10"
   crs:LuminanceAdjustmentMagenta="+10"
   crs:SplitToningShadowHue="216"
   crs:SplitToningShadowSaturation="28"
   crs:SplitToningHighlightHue="224"
   crs:SplitToningHighlightSaturation="47"
   crs:SplitToningBalance="+75"
   crs:ParametricShadows="+30"
   crs:ParametricDarks="+10"
   crs:ParametricLights="+20"
   crs:ParametricHighlights="+15"
   crs:ParametricShadowSplit="19"
   crs:ParametricMidtoneSplit="44"
   crs:ParametricHighlightSplit="72"
   crs:LuminanceNoiseReductionDetail="50"
   crs:ColorNoiseReductionDetail="50"
   crs:LuminanceNoiseReductionContrast="0"
   crs:ColorNoiseReductionSmoothness="50"
   crs:Contrast2012="0"
   crs:Highlights2012="-40"
   crs:Shadows2012="+24"
   crs:Whites2012="-20"
   crs:Blacks2012="+10"
   crs:Clarity2012="+12"
   crs:Dehaze="-6"
   crs:ToneCurveName2012="Vista 800 Contrast +"
   crs:HasSettings="True">
   <crs:Name>
    <rdf:Alt>
     <rdf:li xml:lang="x-default">B1</rdf:li>
    </rdf:Alt>
   </crs:Name>
   <crs:ShortName>
    <rdf:Alt>
     <rdf:li xml:lang="x-default"/>
    </rdf:Alt>
   </crs:ShortName>
   <crs:SortName>
    <rdf:Alt>
     <rdf:li xml:lang="x-default"/>
    </rdf:Alt>
   </crs:SortName>
   <crs:Group>
    <rdf:Alt>
     <rdf:li xml:lang="x-default">MIPack</rdf:li>
    </rdf:Alt>
   </crs:Group>
   <crs:Description>
    <rdf:Alt>
     <rdf:li xml:lang="x-default"/>
    </rdf:Alt>
   </crs:Description>
   <crs:ToneCurvePV2012>
    <rdf:Seq>
     <rdf:li>0, 27</rdf:li>
     <rdf:li>33, 37</rdf:li>
     <rdf:li>79, 75</rdf:li>
     <rdf:li>129, 131</rdf:li>
     <rdf:li>187, 192</rdf:li>
     <rdf:li>255, 245</rdf:li>
    </rdf:Seq>
   </crs:ToneCurvePV2012>
   <crs:ToneCurvePV2012Red>
    <rdf:Seq>
     <rdf:li>0, 0</rdf:li>
     <rdf:li>44, 9</rdf:li>
     <rdf:li>88, 63</rdf:li>
     <rdf:li>118, 121</rdf:li>
     <rdf:li>174, 196</rdf:li>
     <rdf:li>255, 255</rdf:li>
    </rdf:Seq>
   </crs:ToneCurvePV2012Red>
   <crs:ToneCurvePV2012Green>
    <rdf:Seq>
     <rdf:li>0, 0</rdf:li>
     <rdf:li>37, 9</rdf:li>
     <rdf:li>84, 63</rdf:li>
     <rdf:li>115, 120</rdf:li>
     <rdf:li>178, 200</rdf:li>
     <rdf:li>255, 255</rdf:li>
    </rdf:Seq>
   </crs:ToneCurvePV2012Green>
   <crs:ToneCurvePV2012Blue>
    <rdf:Seq>
     <rdf:li>0, 0</rdf:li>
     <rdf:li>43, 20</rdf:li>
     <rdf:li>72, 50</rdf:li>
     <rdf:li>115, 120</rdf:li>
     <rdf:li>148, 170</rdf:li>
     <rdf:li>203, 227</rdf:li>
     <rdf:li>255, 255</rdf:li>
    </rdf:Seq>
   </crs:ToneCurvePV2012Blue>
   <crs:Look>
    <rdf:Description
     crs:Name="Adobe Portrait"
     crs:Amount="1.000000"
     crs:UUID="D6496412E06A83789C499DF9540AA616"
     crs:SupportsAmount="false"
     crs:SupportsMonochrome="false"
     crs:SupportsOutputReferred="false"
     crs:Stubbed="true">
    <crs:Group>
     <rdf:Alt>
      <rdf:li xml:lang="x-default">Profiles</rdf:li>
     </rdf:Alt>
    </crs:Group>
    </rdf:Description>
   </crs:Look>
  </rdf:Description>
 </rdf:RDF>
</x:xmpmeta>
